src/assets/icons/radio-selected.svg

<svg width="16" height="16" viewBox="0 0 16 16" fill="none" xmlns="http://www.w3.org/2000/svg">
<g clip-path="url(#clip0_8874_15288)">
<path d="M5.2463 4.72998C5.96546 4.134 6.80328 3.79581 7.71312 3.73423C8.73077 3.66536 9.75387 3.96838 10.5637 4.57853C10.7402 4.71152 10.8426 4.80144 11.0211 4.97987C11.1995 5.15829 11.2894 5.26078 11.4224 5.43728C12.316 6.62329 12.5243 8.21053 11.9678 9.59432C11.7978 10.0169 11.5754 10.3872 11.271 10.7546C11.1734 10.8724 10.8732 11.1725 10.7555 11.2701C10.0317 11.8699 9.19448 12.2057 8.2713 12.2663C7.26258 12.3325 6.24431 12.0289 5.43816 11.4215C5.26167 11.2885 5.15918 11.1986 4.98075 11.0202C4.80233 10.8418 4.71241 10.7393 4.57942 10.5628C3.91968 9.68717 3.62406 8.57815 3.75746 7.47925C3.85729 6.65683 4.18563 5.90335 4.73087 5.24541C4.82841 5.12769 5.12858 4.82753 5.2463 4.72998Z" fill="currentColor"/>
<path fill-rule="evenodd" clip-rule="evenodd" d="M2.8455 1.8794C4.1914 0.764035 5.75938 0.131112 7.46213 0.0158669C9.36666 -0.11304 11.2814 0.454071 12.7969 1.59597C13.1272 1.84486 13.319 2.01314 13.6529 2.34706C13.9869 2.68098 14.1551 2.87279 14.404 3.2031C16.0764 5.42273 16.4661 8.39322 15.4247 10.983C15.1067 11.7738 14.6904 12.4669 14.1206 13.1545C13.938 13.3748 13.3763 13.9366 13.156 14.1191C11.8013 15.2418 10.2345 15.8701 8.50677 15.9836C6.61894 16.1076 4.71327 15.5393 3.20457 14.4026C2.87426 14.1537 2.68244 13.9854 2.34852 13.6515C2.01461 13.3176 1.84632 13.1257 1.59743 12.7954C0.362741 11.1568 -0.19052 9.08124 0.0591376 7.02465C0.245974 5.48548 0.860448 4.07536 1.88086 2.84403C2.06342 2.62372 2.62518 2.06196 2.8455 1.8794ZM4.05613 3.10227C5.09152 2.27808 6.32025 1.80334 7.62027 1.72517C7.94373 1.70571 8.03285 1.70561 8.34271 1.72429C8.96294 1.76171 9.42994 1.85082 9.99273 2.03913C10.9498 2.35941 11.7138 2.83441 12.4393 3.56046C12.954 4.07542 13.3064 4.55696 13.6056 5.15394C14.3706 6.68021 14.4962 8.39131 13.9609 9.99126C13.6407 10.9481 13.1663 11.7109 12.4393 12.4379C11.925 12.9522 11.4433 13.3048 10.8461 13.6042C9.31979 14.3691 7.6087 14.4948 6.00874 13.9594C5.05209 13.6393 4.28975 13.1652 3.56193 12.4379C3.04594 11.9222 2.69624 11.4438 2.39272 10.8383C1.81867 9.69315 1.60385 8.43298 1.76844 7.17599C1.91694 6.04177 2.37581 4.96914 3.10374 4.05467C3.27573 3.83859 3.84006 3.27427 4.05613 3.10227Z" fill="currentColor"/>
</g>
<defs>
<clipPath id="clip0_8874_15288">
<rect width="16" height="16" fill="white" transform="translate(0 -0.000732422)"/>
</clipPath>
</defs>
</svg>

<svg xmlns="http://www.w3.org/2000/svg" width="16" height="16" fill="none">
  <g fill="currentColor" clip-path="url(#a)">
    <path d="M5.246 4.73a4.267 4.267 0 0 1 2.467-.996 4.282 4.282 0 0 1 2.85.845c.177.133.28.222.458.4.178.18.268.282.401.458a4.278 4.278 0 0 1-.151 5.318 6.222 6.222 0 0 1-.516.515 4.274 4.274 0 0 1-5.317.151 3.758 3.758 0 0 1-.457-.4 3.753 3.753 0 0 1-.402-.458 4.275 4.275 0 0 1 .152-5.318c.097-.117.398-.417.515-.515Z"/>
    <path fill-rule="evenodd" d="M2.845 1.88C4.191.763 5.76.13 7.463.015a8.014 8.014 0 0 1 5.335 1.58c.33.249.522.417.856.751.334.334.502.526.751.856a8.007 8.007 0 0 1-.283 9.951c-.183.22-.745.783-.965.965-1.355 1.123-2.921 1.751-4.65 1.865a7.998 7.998 0 0 1-5.301-1.581 7.03 7.03 0 0 1-.856-.752 7.027 7.027 0 0 1-.752-.856 8 8 0 0 1 .284-9.951c.182-.22.744-.782.964-.965Zm1.211 1.222A6.299 6.299 0 0 1 7.62 1.725c.324-.02.413-.02.723 0 .62.037 1.087.126 1.65.314.957.32 1.72.795 2.446 1.521a5.9 5.9 0 0 1 1.167 1.594 6.266 6.266 0 0 1 .355 4.837 6.015 6.015 0 0 1-1.522 2.447 5.883 5.883 0 0 1-1.593 1.166 6.266 6.266 0 0 1-4.837.355 6.018 6.018 0 0 1-2.447-1.521 5.868 5.868 0 0 1-1.17-1.6 6.3 6.3 0 0 1-.624-3.662 6.32 6.32 0 0 1 1.336-3.121c.172-.216.736-.78.952-.953Z" clip-rule="evenodd"/>
  </g>
  <defs>
    <clipPath id="a">
      <path fill="#fff" d="M0 0h16v16H0z"/>
    </clipPath>
  </defs>
</svg>
